X: 556
T: Xiang gege
L: 1/8
M: 2/4
K: F
c2E2 [I:setbarnb 1]| 
f df2 | 
d c A c | 
G3A | 
G/ A/ G/ F/ D F | 
G4 | 
ff2d | 
c2C2 | 
GG2F/ D/ | 
C4 |]

@@@ Tune index: 9430
